X:1
T: Mrs. R. Donaldson
C:Hugh Dunlop
R:Strathspey
Q: 128
K:G
M:4/4
L:1/16
|:c2|BG3 D3G E3G D3G|B3G D3G c3B Ad3|BG3 D3G E3G D3G|B3d g3d BG3 G2c2|
BG3 D3G E3G D3G|B3G D3G c3B Ad3|BG3 D3G E3G D3G|B3d g3d BG3 G2c2|
B3c d3f g3a g3d|B3d g3B cA3 A3c|B3c d3f g3a g3d|Bg3 A3d BG3 G2c2|
B3c d3f g3a g3d|B3d g3B cA3 A3c|g3a b3g a3g f3d|gB3 e3d BG3 G2:|
